icons/arrow-loop-right.svg

<svg width="24" height="24" viewBox="0 0 24 24" fill="none" xmlns="http://www.w3.org/2000/svg">
<path fill-rule="evenodd" clip-rule="evenodd" d="M3.54999 10.75C3.54999 10.0728 4.18879 9.20831 5.80016 8.46927C7.34423 7.76108 9.53304 7.30005 12 7.30005C14.4669 7.30005 16.6558 7.76108 18.1998 8.46927C19.8112 9.20831 20.45 10.0728 20.45 10.75C20.45 11.293 20.0828 11.8934 19.284 12.426C18.9393 12.6558 18.8462 13.1214 19.076 13.4661C19.3057 13.8107 19.7714 13.9039 20.116 13.6741C21.1172 13.0067 21.95 12.0071 21.95 10.75C21.95 9.12728 20.5388 7.89179 18.8252 7.10583C17.0442 6.28901 14.633 5.80005 12 5.80005C9.36693 5.80005 6.95575 6.28901 5.17482 7.10583C3.46118 7.89179 2.04999 9.12728 2.04999 10.75C2.04999 11.6395 2.57913 12.3851 3.25059 12.9614C3.93267 13.5468 4.86346 14.0498 5.91419 14.461C7.5407 15.0974 9.54719 15.5494 11.5908 15.7223L10.2176 16.8758C9.90045 17.1422 9.85931 17.6153 10.1257 17.9324C10.3922 18.2496 10.8652 18.2908 11.1824 18.0243L13.6824 15.9243L13.7073 15.9034L13.7303 15.8804C13.8441 15.7666 13.9292 15.6422 13.99 15.5131C14.0902 15.3856 14.15 15.2248 14.15 15.05C14.15 14.9634 14.1353 14.8802 14.1082 14.8027C14.0909 14.623 14.0409 14.4548 13.9708 14.3146L13.9312 14.2355L13.8743 14.1677L11.7743 11.6677C11.5079 11.3505 11.0348 11.3094 10.7176 11.5758C10.4005 11.8422 10.3593 12.3153 10.6257 12.6324L11.9832 14.2485C9.98278 14.1051 8.01306 13.6715 6.46079 13.0641C5.49902 12.6878 4.73606 12.2596 4.22751 11.8231C3.70834 11.3775 3.54999 11.0106 3.54999 10.75Z" fill="black"/>
</svg>

<svg xmlns="http://www.w3.org/2000/svg" fill="none" viewBox="0 0 24 24">
  <path fill="#000" fill-rule="evenodd" d="M3.55 10.75c0-.677.639-1.542 2.25-2.28C7.344 7.76 9.533 7.3 12 7.3s4.656.461 6.2 1.17c1.611.738 2.25 1.603 2.25 2.28 0 .543-.367 1.143-1.166 1.676a.75.75 0 1 0 .832 1.248c1.001-.667 1.834-1.667 1.834-2.924 0-1.623-1.411-2.858-3.125-3.644C17.045 6.289 14.633 5.8 12 5.8s-5.044.489-6.825 1.306C3.46 7.892 2.05 9.127 2.05 10.75c0 .89.53 1.635 1.2 2.211.683.586 1.613 1.089 2.664 1.5 1.627.636 3.633 1.088 5.677 1.261l-1.373 1.154a.75.75 0 1 0 .964 1.148l2.5-2.1.025-.02.023-.024c.114-.113.2-.238.26-.367a.747.747 0 0 0 .118-.71 1.403 1.403 0 0 0-.137-.488l-.04-.08-.057-.067-2.1-2.5a.75.75 0 0 0-1.148.964l1.357 1.617c-2-.144-3.97-.578-5.522-1.185-.962-.376-1.725-.804-2.233-1.24-.52-.447-.678-.813-.678-1.074Z" clip-rule="evenodd"/>
</svg>
